X:083
T:Miss Grimstrobs Hornpipe TS.083
T:Bridge of Lodi,The,aka TS.083
T:Saxon’s Hornpipe,aka TS.083
T:Nelson’s Hornpipe,aka TS.083
T:Lord Nelson’s Hornpipe,aka TS.083
M:C|
L:1/8
Q:1/2=90
S:Thomas Sands’ MS,1810,Lincolnshire
R:.hornpipe
O:England;Lincolnshire
Z:vmp.Ruairidh Greig, 2011
K:D
“s-q in ms”AF|D2(d2d2)cd|ecAc d2 (eg)|fdec dBed|cdcB AGFE|
D2(d2d2) cd|ecAcd2(eg)|fdec dBA^G|A2A2HA2:|
|:fg|agfe dedc|B2G2G2ga|bagf efed|c2A2A2AF|
D2(d2d2)cd|ecAc d2(ef)|abag fedc|d2(d2d2):|]

